packages/calcite-ui-icons/icons/table-set-16.svg

<?xml version="1.0" encoding="UTF-8"?><svg id="icons" xmlns="http://www.w3.org/2000/svg" viewBox="0 0 16 16"><defs><style>.cls-1{fill:none;}</style></defs><rect class="cls-1" width="16" height="16"/><path d="M4,9h11V1H0v14h8v-1h-4v-2h4v-1h-4v-2ZM8,8h-4v-2h4v2ZM14,8h-5v-2h5v2ZM3,14H1v-2h2v2ZM3,11H1v-2h2v2ZM3,8H1v-2h2v2ZM1,5v-3h13v3H1ZM9,10h2v1h-1v4h1v1h-2v-6ZM16,10v6h-2v-1h1v-4h-1v-1h2Z"/></svg>

<svg xmlns="http://www.w3.org/2000/svg" viewBox="0 0 16 16"><path fill="none" d="M0 0h16v16H0z"/><path d="M4 9h11V1H0v14h8v-1H4v-2h4v-1H4V9zm4-1H4V6h4v2zm6 0H9V6h5v2zM3 14H1v-2h2v2zm0-3H1V9h2v2zm0-3H1V6h2v2zM1 5V2h13v3H1zm8 5h2v1h-1v4h1v1H9v-6zm7 0v6h-2v-1h1v-4h-1v-1h2z"/></svg>
